svgs/light/hotel.svg

<svg xmlns="http://www.w3.org/2000/svg" viewBox="0 0 512 512"><!-- Font Awesome Pro 6.0.0-alpha2 by @fontawesome - https://fontawesome.com License - https://fontawesome.com/license (Commercial License) --><path d="M496 480H480V32H496C504.836 32 512 24.836 512 16C512 7.162 504.836 0 496 0H16C7.164 0 0 7.162 0 16C0 24.836 7.164 32 16 32H32V480H16C7.164 480 0 487.162 0 496C0 504.836 7.164 512 16 512H224C232.844 512 240 504.844 240 496V416H272V496C272 504.844 279.156 512 288 512H496C504.836 512 512 504.836 512 496C512 487.162 504.836 480 496 480ZM448 480H304V416C304 398.359 289.641 384 272 384H240C222.359 384 208 398.359 208 416V480H64V32H448V480ZM320 160H352C369.674 160 384 145.672 384 128V96C384 78.326 369.674 64 352 64H320C302.326 64 288 78.326 288 96V128C288 145.672 302.326 160 320 160ZM320 96H352V128H320V96ZM160 288H192C209.674 288 224 273.672 224 256V224C224 206.326 209.674 192 192 192H160C142.326 192 128 206.326 128 224V256C128 273.672 142.326 288 160 288ZM160 224H192V256H160V224ZM320 288H352C369.674 288 384 273.672 384 256V224C384 206.326 369.674 192 352 192H320C302.326 192 288 206.326 288 224V256C288 273.672 302.326 288 320 288ZM320 224H352V256H320V224ZM160 160H192C209.674 160 224 145.672 224 128V96C224 78.326 209.674 64 192 64H160C142.326 64 128 78.326 128 96V128C128 145.672 142.326 160 160 160ZM160 96H192V128H160V96ZM162.016 376.219C157.719 383.937 160.5 393.687 168.219 397.969C175.984 402.312 185.672 399.469 189.984 391.781C203.641 367.25 228.938 352 256 352S308.359 367.25 322.016 391.781C324.953 397.031 330.391 400 336.016 400C338.641 400 341.312 399.344 343.781 397.969C351.5 393.687 354.281 383.937 349.984 376.219C330.672 341.531 294.672 320 256 320S181.328 341.531 162.016 376.219Z"/></svg>

<svg xmlns="http://www.w3.org/2000/svg" viewBox="0 0 512 512"><!--! Font Awesome Pro 6.0.0-alpha3 by @fontawesome - https://fontawesome.com License - https://fontawesome.com/license (Commercial License) --><path d="M496 480H480V32h16C504.8 32 512 24.84 512 16C512 7.162 504.8 0 496 0h-480C7.164 0 0 7.162 0 16C0 24.84 7.164 32 16 32H32v448H16C7.164 480 0 487.2 0 496C0 504.8 7.164 512 16 512H224c8.844 0 16-7.156 16-16V416h32v80c0 8.844 7.156 16 16 16h208c8.836 0 16-7.164 16-16C512 487.2 504.8 480 496 480zM448 480h-144v-63.99C304 398.4 289.6 384 272 384h-32c-17.64 0-32 14.37-32 32.01V480H64V32h384V480zM320 160h32c17.67 0 32-14.33 32-32V96c0-17.67-14.33-32-32-32h-32c-17.67 0-32 14.33-32 32v32C288 145.7 302.3 160 320 160zM320 96h32v32h-32V96zM160 288h32c17.67 0 32-14.33 32-32V224c0-17.67-14.33-32-32-32H160C142.3 192 128 206.3 128 224v32C128 273.7 142.3 288 160 288zM160 224h32v32H160V224zM320 288h32c17.67 0 32-14.33 32-32V224c0-17.67-14.33-32-32-32h-32c-17.67 0-32 14.33-32 32v32C288 273.7 302.3 288 320 288zM320 224h32v32h-32V224zM160 160h32c17.67 0 32-14.33 32-32V96c0-17.67-14.33-32-32-32H160C142.3 64 128 78.33 128 96v32C128 145.7 142.3 160 160 160zM160 96h32v32H160V96zM162 376.2c-4.297 7.719-1.516 17.47 6.203 21.75c7.766 4.344 17.45 1.5 21.77-6.188C203.6 367.3 228.9 352 256 352s52.36 15.25 66.02 39.78C324.1 397 330.4 400 336 400c2.625 0 5.297-.6562 7.766-2.031c7.719-4.281 10.5-14.03 6.203-21.75C330.7 341.5 294.7 320 256 320S181.3 341.5 162 376.2z"/></svg>
